doctor/static/assets/laptop-mobile.svg

<svg width="535" height="307" viewBox="0 0 535 307" fill="none" xmlns="http://www.w3.org/2000/svg">
<g clip-path="url(#clip0)">
<path d="M115.92 272.51C131.286 272.51 143.743 260.069 143.743 244.723C143.743 229.377 131.286 216.936 115.92 216.936C100.553 216.936 88.0967 229.377 88.0967 244.723C88.0967 260.069 100.553 272.51 115.92 272.51Z" fill="#F2F2F2"/>
<path d="M120.444 268.443C135.81 268.443 148.267 256.003 148.267 240.657C148.267 225.31 135.81 212.87 120.444 212.87C105.078 212.87 92.6208 225.31 92.6208 240.657C92.6208 256.003 105.078 268.443 120.444 268.443Z" fill="#FF748E"/>
<path d="M487.097 209.911H142.851V210.849H487.097V209.911Z" fill="#3F3D56"/>
<path d="M321.136 8.74848H198.95V6.2334H143.546V8.74848H20.8568C19.7714 8.74848 18.6966 8.96198 17.6939 9.3768C16.6911 9.79161 15.78 10.3996 15.0125 11.1661C14.2451 11.9326 13.6363 12.8425 13.2209 13.8439C12.8056 14.8454 12.5918 15.9187 12.5918 17.0027V184.095C12.5918 186.285 13.4626 188.384 15.0125 189.932C16.5625 191.48 18.6648 192.35 20.8568 192.35H321.136C323.328 192.35 325.431 191.48 326.981 189.932C328.531 188.384 329.401 186.285 329.401 184.095V17.0027C329.401 15.9187 329.188 14.8454 328.772 13.8439C328.357 12.8425 327.748 11.9326 326.981 11.1661C326.213 10.3996 325.302 9.79161 324.299 9.3768C323.296 8.96198 322.222 8.74848 321.136 8.74848V8.74848Z" fill="#3F3D56"/>
<path d="M318.321 23.3359H23.6726V189.331H318.321V23.3359Z" fill="#FF748E"/>
<path d="M170.745 18.8087C172.414 18.8087 173.767 17.4575 173.767 15.7906C173.767 14.1238 172.414 12.7725 170.745 12.7725C169.076 12.7725 167.723 14.1238 167.723 15.7906C167.723 17.4575 169.076 18.8087 170.745 18.8087Z" fill="#FF748E"/>
<path opacity="0.1" d="M234.056 189.332H23.6726V23.3361L234.056 189.332Z" fill="black"/>
<path d="M69.7761 176.91C85.4181 176.91 98.0985 164.246 98.0985 148.624C98.0985 133.003 85.4181 120.339 69.7761 120.339C54.134 120.339 41.4536 133.003 41.4536 148.624C41.4536 164.246 54.134 176.91 69.7761 176.91Z" fill="#F2F2F2"/>
<path d="M267.017 112.859H239.494V118.602H267.017V112.859Z" fill="#3F3D56"/>
<path d="M300.292 68.1401H206.219V70.6017H300.292V68.1401Z" fill="#3F3D56"/>
<path d="M300.292 75.9351H206.219V78.3967H300.292V75.9351Z" fill="#3F3D56"/>
<path d="M300.292 83.7301H206.219V86.1917H300.292V83.7301Z" fill="#3F3D56"/>
<path d="M300.292 91.5251H206.219V93.9867H300.292V91.5251Z" fill="#3F3D56"/>
<path d="M300.292 99.32H206.219V101.782H300.292V99.32Z" fill="#3F3D56"/>
<path d="M300.292 26.7036H288.79V38.191H300.292V26.7036Z" fill="#F2F2F2"/>
<path d="M305.632 43.5244H291.665V29.5755H305.632V43.5244ZM292.273 42.918H305.025V30.182H292.273V42.918Z" fill="#3F3D56"/>
<path d="M337.674 186.313H308.919V184.244C308.919 184.19 308.908 184.137 308.887 184.087C308.867 184.038 308.836 183.992 308.798 183.954C308.76 183.916 308.715 183.886 308.665 183.865C308.615 183.845 308.562 183.834 308.508 183.834H298.649C298.595 183.834 298.541 183.845 298.492 183.865C298.442 183.886 298.396 183.916 298.358 183.954C298.32 183.992 298.29 184.038 298.269 184.087C298.249 184.137 298.238 184.19 298.238 184.244V186.313H292.076V184.244C292.076 184.19 292.065 184.137 292.045 184.087C292.024 184.038 291.994 183.992 291.956 183.954C291.918 183.916 291.872 183.886 291.822 183.865C291.773 183.845 291.719 183.834 291.665 183.834H281.806C281.752 183.834 281.699 183.845 281.649 183.865C281.599 183.886 281.554 183.916 281.516 183.954C281.477 183.992 281.447 184.038 281.427 184.087C281.406 184.137 281.395 184.19 281.395 184.244V186.313H275.233V184.244C275.233 184.19 275.223 184.137 275.202 184.087C275.181 184.038 275.151 183.992 275.113 183.954C275.075 183.916 275.03 183.886 274.98 183.865C274.93 183.845 274.877 183.834 274.823 183.834H264.963C264.91 183.834 264.856 183.845 264.806 183.865C264.756 183.886 264.711 183.916 264.673 183.954C264.635 183.992 264.605 184.038 264.584 184.087C264.563 184.137 264.553 184.19 264.553 184.244V186.313H258.391V184.244C258.391 184.19 258.38 184.137 258.359 184.087C258.339 184.038 258.309 183.992 258.27 183.954C258.232 183.916 258.187 183.886 258.137 183.865C258.087 183.845 258.034 183.834 257.98 183.834H248.121C248.067 183.834 248.013 183.845 247.964 183.865C247.914 183.886 247.868 183.916 247.83 183.954C247.792 183.992 247.762 184.038 247.741 184.087C247.721 184.137 247.71 184.19 247.71 184.244V186.313H241.548V184.244C241.548 184.19 241.537 184.137 241.517 184.087C241.496 184.038 241.466 183.992 241.428 183.954C241.39 183.916 241.344 183.886 241.295 183.865C241.245 183.845 241.191 183.834 241.137 183.834H231.278C231.224 183.834 231.171 183.845 231.121 183.865C231.071 183.886 231.026 183.916 230.988 183.954C230.95 183.992 230.919 184.038 230.899 184.087C230.878 184.137 230.867 184.19 230.867 184.244V186.313H224.705V184.244C224.705 184.19 224.695 184.137 224.674 184.087C224.654 184.038 224.623 183.992 224.585 183.954C224.547 183.916 224.502 183.886 224.452 183.865C224.402 183.845 224.349 183.834 224.295 183.834H214.436C214.382 183.834 214.328 183.845 214.278 183.865C214.229 183.886 214.183 183.916 214.145 183.954C214.107 183.992 214.077 184.038 214.056 184.087C214.035 184.137 214.025 184.19 214.025 184.244V186.313H207.863V184.244C207.863 184.19 207.852 184.137 207.832 184.087C207.811 184.038 207.781 183.992 207.742 183.954C207.704 183.916 207.659 183.886 207.609 183.865C207.559 183.845 207.506 183.834 207.452 183.834H130.222C130.168 183.834 130.115 183.845 130.065 183.865C130.015 183.886 129.97 183.916 129.932 183.954C129.894 183.992 129.863 184.038 129.843 184.087C129.822 184.137 129.812 184.19 129.812 184.244V186.313H123.65V184.244C123.65 184.19 123.639 184.137 123.618 184.087C123.598 184.038 123.567 183.992 123.529 183.954C123.491 183.916 123.446 183.886 123.396 183.865C123.346 183.845 123.293 183.834 123.239 183.834H113.38C113.326 183.834 113.272 183.845 113.223 183.865C113.173 183.886 113.127 183.916 113.089 183.954C113.051 183.992 113.021 184.038 113 184.087C112.98 184.137 112.969 184.19 112.969 184.244V186.313H106.807V184.244C106.807 184.19 106.796 184.137 106.776 184.087C106.755 184.038 106.725 183.992 106.687 183.954C106.649 183.916 106.603 183.886 106.553 183.865C106.504 183.845 106.45 183.834 106.396 183.834H96.5371C96.4831 183.834 96.4297 183.845 96.3799 183.865C96.33 183.886 96.2847 183.916 96.2466 183.954C96.2084 183.992 96.1782 184.038 96.1575 184.087C96.1369 184.137 96.1263 184.19 96.1263 184.244V186.313H89.9643V184.244C89.9643 184.19 89.9537 184.137 89.9331 184.087C89.9124 184.038 89.8822 183.992 89.844 183.954C89.8059 183.916 89.7606 183.886 89.7107 183.865C89.6609 183.845 89.6075 183.834 89.5535 183.834H79.6944C79.6405 183.834 79.5871 183.845 79.5372 183.865C79.4874 183.886 79.4421 183.916 79.404 183.954C79.3658 183.992 79.3356 184.038 79.3149 184.087C79.2943 184.137 79.2836 184.19 79.2836 184.244V186.313H73.1217V184.244C73.1217 184.19 73.1111 184.137 73.0905 184.087C73.0698 184.038 73.0396 183.992 73.0014 183.954C72.9633 183.916 72.918 183.886 72.8681 183.865C72.8183 183.845 72.7649 183.834 72.7109 183.834H62.8518C62.7979 183.834 62.7444 183.845 62.6946 183.865C62.6447 183.886 62.5995 183.916 62.5613 183.954C62.5232 183.992 62.4929 184.038 62.4723 184.087C62.4516 184.137 62.441 184.19 62.441 184.244V186.313H56.2791V184.244C56.2791 184.19 56.2684 184.137 56.2478 184.087C56.2272 184.038 56.1969 183.992 56.1587 183.954C56.1206 183.916 56.0753 183.886 56.0255 183.865C55.9756 183.845 55.9222 183.834 55.8683 183.834H46.0092C45.9552 183.834 45.9018 183.845 45.852 183.865C45.8021 183.886 45.7568 183.916 45.7187 183.954C45.6805 183.992 45.6503 184.038 45.6296 184.087C45.609 184.137 45.5984 184.19 45.5984 184.244V186.313H39.4364V184.244C39.4364 184.19 39.4258 184.137 39.4052 184.087C39.3845 184.038 39.3543 183.992 39.3161 183.954C39.278 183.916 39.2327 183.886 39.1828 183.865C39.133 183.845 39.0796 183.834 39.0256 183.834H29.1665C29.1126 183.834 29.0592 183.845 29.0093 183.865C28.9595 183.886 28.9142 183.916 28.876 183.954C28.8379 183.992 28.8076 184.038 28.787 184.087C28.7663 184.137 28.7557 184.19 28.7557 184.244V186.313H9.85911C7.24431 186.313 4.73661 187.351 2.88767 189.197C1.03873 191.044 2.49112e-06 193.548 0 196.16V200.612C7.47336e-06 203.223 1.03874 205.728 2.88768 207.574C4.73662 209.421 7.24431 210.458 9.85911 210.458H337.674C340.289 210.458 342.797 209.421 344.646 207.574C346.495 205.728 347.533 203.223 347.533 200.612V196.16C347.533 193.548 346.495 191.044 344.646 189.197C342.797 187.351 340.289 186.313 337.674 186.313Z" fill="#3F3D56"/>
<path d="M76.6319 166.291C69.5725 166.291 62.6717 164.201 56.8021 160.284C50.9325 156.367 46.3577 150.8 43.6562 144.286C40.9547 137.773 40.2478 130.605 41.625 123.691C43.0023 116.776 46.4016 110.424 51.3934 105.439C56.3851 100.454 62.7449 97.0591 69.6686 95.6837C76.5923 94.3082 83.7689 95.0142 90.2908 97.7121C96.8128 100.41 102.387 104.979 106.309 110.841C110.231 116.703 112.324 123.595 112.324 130.645C112.314 140.096 108.55 149.156 101.859 155.839C95.1672 162.521 86.0948 166.28 76.6319 166.291ZM76.6319 95.9368C69.7583 95.9368 63.0391 97.9724 57.3239 101.786C51.6088 105.6 47.1543 111.021 44.5239 117.363C41.8935 123.705 41.2053 130.683 42.5463 137.416C43.8872 144.149 47.1972 150.333 52.0575 155.187C56.9179 160.041 63.1103 163.347 69.8518 164.686C76.5933 166.025 83.581 165.338 89.9314 162.711C96.2817 160.084 101.709 155.636 105.528 149.928C109.347 144.22 111.385 137.51 111.385 130.645C111.375 121.443 107.71 112.621 101.195 106.114C94.6794 99.6073 85.8458 95.9472 76.6319 95.9368V95.9368Z" fill="#3F3D56"/>
<path d="M395.047 15.2638H275.289V16.2019H395.047V15.2638Z" fill="#3F3D56"/>
<path d="M535 262.911H190.754V263.849H535V262.911Z" fill="#3F3D56"/>
<path d="M210.244 306.062H90.4863V307H210.244V306.062Z" fill="#3F3D56"/>
<path d="M234.35 257.966H221.2V271.099H234.35V257.966Z" fill="#FF748E"/>
<path d="M242.334 263.595H226.366V247.648H242.334V263.595ZM227.061 262.901H241.64V248.341H227.061V262.901Z" fill="#3F3D56"/>
<path d="M386.983 10.3187H373.833V23.4515H386.983V10.3187Z" fill="#FF748E"/>
<path d="M394.967 15.947H378.999V0H394.967V15.947ZM379.694 15.2537H394.273V0.693349H379.694V15.2537Z" fill="#3F3D56"/>
<path d="M519.422 257.966H506.272V271.099H519.422V257.966Z" fill="#FF748E"/>
<path d="M527.406 263.595H511.438V247.648H527.406V263.595ZM512.132 262.901H526.711V248.341H512.132V262.901Z" fill="#3F3D56"/>
<path d="M496.49 108.795H495.373V78.2325C495.373 75.9096 494.915 73.6094 494.025 71.4633C493.134 69.3171 491.83 67.3671 490.185 65.7246C488.54 64.082 486.588 62.7791 484.439 61.8901C482.29 61.0012 479.987 60.5436 477.661 60.5436H412.825C410.499 60.5436 408.196 61.0012 406.047 61.8901C403.898 62.779 401.946 64.082 400.301 65.7246C398.657 67.3671 397.352 69.3171 396.462 71.4633C395.572 73.6094 395.114 75.9096 395.114 78.2325V245.902C395.114 248.225 395.572 250.525 396.462 252.671C397.352 254.817 398.657 256.767 400.301 258.41C401.946 260.052 403.898 261.355 406.047 262.244C408.196 263.133 410.499 263.591 412.825 263.591H477.661C479.987 263.591 482.29 263.133 484.439 262.244C486.588 261.355 488.54 260.052 490.185 258.41C491.83 256.767 493.134 254.817 494.025 252.671C494.915 250.525 495.373 248.225 495.373 245.902V130.55H496.49V108.795Z" fill="#3F3D56"/>
<path d="M491.601 79.2721V246.697C491.601 250.2 490.208 253.561 487.728 256.039C485.248 258.516 481.884 259.909 478.376 259.909H413.227C409.719 259.909 406.355 258.516 403.875 256.039C401.395 253.561 400.002 250.2 400.002 246.697V79.2721C400.003 75.7693 401.396 72.4101 403.876 69.9332C406.356 67.4563 409.72 66.0646 413.227 66.0643H421.131C420.742 67.0172 420.594 68.051 420.699 69.0746C420.805 70.0982 421.16 71.0803 421.735 71.9343C422.31 72.7883 423.086 73.488 423.996 73.9718C424.905 74.4555 425.92 74.7085 426.95 74.7085H464.094C465.124 74.7085 466.139 74.4556 467.048 73.9718C467.958 73.488 468.734 72.7883 469.309 71.9343C469.884 71.0803 470.24 70.0982 470.345 69.0746C470.45 68.051 470.302 67.0172 469.913 66.0643H478.376C481.883 66.0646 485.247 67.4563 487.727 69.9332C490.207 72.41 491.6 75.7693 491.601 79.2721V79.2721Z" fill="#FF748E"/>
<path d="M455.505 176.457H436.098V182.201H455.505V176.457Z" fill="#3F3D56"/>
<path d="M478.968 131.739H412.635V134.2H478.968V131.739Z" fill="#3F3D56"/>
<path d="M478.968 139.534H412.635V141.995H478.968V139.534Z" fill="#3F3D56"/>
<path d="M478.968 147.329H412.635V149.79H478.968V147.329Z" fill="#3F3D56"/>
<path d="M478.968 155.124H412.635V157.585H478.968V155.124Z" fill="#3F3D56"/>
<path d="M478.968 162.919H412.635V165.38H478.968V162.919Z" fill="#3F3D56"/>
<path d="M448.119 99.0491H436.616V110.536H448.119V99.0491Z" fill="#F2F2F2"/>
<path d="M441.02 101.922V115.871H454.987V101.922H441.02ZM454.381 115.266H441.625V102.527H454.381V115.266Z" fill="#3F3D56"/>
<path opacity="0.1" d="M491.601 228.818V246.697C491.601 250.2 490.208 253.561 487.728 256.039C485.248 258.516 481.884 259.909 478.376 259.909H413.227C409.719 259.909 406.355 258.516 403.875 256.039C401.395 253.561 400.002 250.2 400.002 246.697V156.545L454.889 199.85L455.828 200.591L466.038 208.645L466.992 209.4L491.601 228.818Z" fill="black"/>
<path d="M440.166 254.483C451.544 254.483 460.768 245.272 460.768 233.908C460.768 222.545 451.544 213.333 440.166 213.333C428.788 213.333 419.564 222.545 419.564 233.908C419.564 245.272 428.788 254.483 440.166 254.483Z" fill="#F2F2F2"/>
<path d="M150.365 307C142.284 307 134.385 304.607 127.665 300.123C120.946 295.639 115.709 289.266 112.617 281.81C109.524 274.354 108.715 266.149 110.292 258.234C111.868 250.318 115.76 243.047 121.474 237.341C127.188 231.634 134.468 227.747 142.394 226.173C150.32 224.599 158.535 225.407 166.001 228.495C173.467 231.584 179.848 236.814 184.338 243.524C188.828 250.235 191.224 258.124 191.224 266.194C191.212 277.013 186.903 287.385 179.243 295.035C171.583 302.685 161.198 306.988 150.365 307ZM150.365 226.327C142.47 226.327 134.752 228.665 128.187 233.046C121.623 237.427 116.506 243.653 113.485 250.938C110.463 258.223 109.673 266.239 111.213 273.972C112.753 281.706 116.555 288.809 122.138 294.385C127.721 299.961 134.834 303.758 142.577 305.296C150.321 306.834 158.347 306.045 165.642 303.027C172.936 300.01 179.171 294.9 183.557 288.344C187.943 281.788 190.285 274.08 190.285 266.194C190.273 255.625 186.063 245.491 178.579 238.017C171.096 230.543 160.949 226.339 150.365 226.327V226.327Z" fill="#3F3D56"/>
<path d="M446.238 249.778C441.13 249.778 436.136 248.265 431.888 245.431C427.64 242.596 424.329 238.567 422.374 233.854C420.419 229.14 419.908 223.953 420.905 218.949C421.901 213.945 424.361 209.349 427.974 205.741C431.586 202.133 436.189 199.676 441.199 198.681C446.21 197.685 451.403 198.196 456.123 200.149C460.843 202.101 464.877 205.408 467.715 209.65C470.554 213.892 472.069 218.88 472.069 223.982C472.061 230.821 469.337 237.378 464.495 242.214C459.652 247.05 453.087 249.771 446.238 249.778V249.778ZM446.238 199.123C441.315 199.123 436.503 200.581 432.41 203.313C428.316 206.044 425.126 209.927 423.242 214.469C421.358 219.011 420.865 224.009 421.826 228.831C422.786 233.654 425.157 238.083 428.638 241.559C432.119 245.036 436.554 247.404 441.382 248.363C446.211 249.322 451.216 248.83 455.764 246.948C460.312 245.067 464.199 241.88 466.934 237.792C469.669 233.705 471.129 228.898 471.129 223.982C471.122 217.391 468.497 211.073 463.831 206.412C459.164 201.752 452.838 199.131 446.238 199.123Z" fill="#3F3D56"/>
</g>
<defs>
<clipPath id="clip0">
<rect width="535" height="307" fill="white"/>
</clipPath>
</defs>
</svg>

<svg xmlns="http://www.w3.org/2000/svg" xmlns:xlink="http://www.w3.org/1999/xlink" width="535" height="307" fill="none"><style><![CDATA[.B{fill:#3f3d56}.C{fill:#ff748e}.D{fill:#f2f2f2}]]></style><g clip-path="url(#A)"><path d="M115.92 272.5c15.366 0 27.823-12.44 27.823-27.787s-12.457-27.787-27.823-27.787-27.823 12.44-27.823 27.787S100.553 272.5 115.92 272.5z" class="D"/><path d="M120.444 268.443c15.366 0 27.823-12.44 27.823-27.786S135.8 212.87 120.444 212.87 92.62 225.3 92.62 240.657s12.457 27.786 27.823 27.786z" class="C"/><g class="B"><path d="M487.097 209.9H142.85v.938h344.246v-.938zM321.136 8.748H198.95V6.233h-55.404v2.515H20.857c-1.085 0-2.16.213-3.163.628a8.24 8.24 0 0 0-2.68 1.79 8.29 8.29 0 0 0-1.792 2.678 8.24 8.24 0 0 0-.63 3.16v167.092a8.25 8.25 0 0 0 2.421 5.837 8.27 8.27 0 0 0 5.844 2.418h300.28c2.192 0 4.295-.87 5.845-2.418s2.42-3.647 2.42-5.837V17.003c0-1.084-.213-2.157-.63-3.16a8.3 8.3 0 0 0-1.79-2.678 8.27 8.27 0 0 0-5.845-2.417h0z"/></g><g class="C"><path d="M318.32 23.336H23.673V189.33H318.32V23.336zM170.745 18.8a3.02 3.02 0 0 0 3.022-3.018 3.022 3.022 0 1 0-6.044 0 3.02 3.02 0 0 0 3.022 3.018z"/></g><path opacity=".1" d="M234.056 189.332H23.673V23.336l210.383 165.996z" fill="#000"/><path d="M69.776 176.9c15.642 0 28.322-12.664 28.322-28.286s-12.68-28.285-28.322-28.285-28.322 12.664-28.322 28.285S54.134 176.9 69.776 176.9z" class="D"/><g class="B"><path d="M267.017 112.86h-27.523v5.743h27.523v-5.743zm33.275-44.72H206.22v2.462h94.073V68.14zm0 7.795H206.22v2.462h94.073v-2.462zm0 7.795H206.22v2.462h94.073V83.73zm0 7.795H206.22v2.462h94.073v-2.462zm0 7.795H206.22v2.462h94.073V99.32z"/></g><path d="M300.292 26.704H288.8V38.19h11.502V26.704z" class="D"/><g class="B"><path d="M305.632 43.524h-13.967v-13.95h13.967v13.95zm-13.36-.606h12.752V30.182h-12.752v12.736zm45.402 143.395H308.92v-2.07c0-.054-.01-.107-.032-.157a.41.41 0 0 0-.089-.133c-.038-.038-.083-.068-.133-.1s-.103-.03-.157-.03h-9.86a.42.42 0 0 0-.291.12c-.038.038-.068.084-.1.133s-.03.103-.03.157v2.07h-6.162v-2.07a.42.42 0 0 0-.03-.157c-.02-.05-.05-.095-.1-.133a.42.42 0 0 0-.291-.12h-9.86a.42.42 0 0 0-.157.03c-.05.02-.095.05-.133.1s-.07.084-.1.133a.42.42 0 0 0-.032.157v2.07h-6.162v-2.07a.42.42 0 0 0-.03-.157c-.02-.05-.05-.095-.1-.133a.46.46 0 0 0-.133-.09c-.05-.022-.103-.03-.157-.03h-9.86c-.053 0-.107.01-.157.03s-.095.05-.133.1-.068.084-.1.133-.03.103-.03.157v2.07h-6.162v-2.07c0-.054-.01-.107-.032-.157a.4.4 0 0 0-.09-.133.46.46 0 0 0-.133-.09c-.05-.022-.103-.03-.157-.03h-9.86a.42.42 0 0 0-.291.12c-.038.038-.068.084-.1.133s-.03.103-.03.157v2.07h-6.162v-2.07a.42.42 0 0 0-.03-.157c-.02-.05-.05-.095-.1-.133s-.084-.068-.133-.1-.104-.03-.158-.03h-9.86a.42.42 0 0 0-.157.03c-.05.02-.095.05-.133.1a.41.41 0 0 0-.089.133c-.02.05-.032.103-.032.157v2.07H224.7v-2.07a.42.42 0 0 0-.03-.157.41.41 0 0 0-.089-.133c-.038-.038-.083-.068-.133-.1s-.103-.03-.157-.03h-9.86c-.054 0-.108.01-.158.03s-.095.05-.133.1-.068.084-.1.133-.03.103-.03.157v2.07h-6.162v-2.07a.42.42 0 0 0-.03-.157.41.41 0 0 0-.09-.133c-.038-.038-.083-.068-.133-.1s-.103-.03-.157-.03h-77.23a.42.42 0 0 0-.157.03c-.05.02-.095.05-.133.1a.41.41 0 0 0-.089.133.42.42 0 0 0-.03.157v2.07h-6.162v-2.07c0-.054-.01-.107-.032-.157a.41.41 0 0 0-.089-.133c-.038-.038-.083-.068-.133-.1s-.103-.03-.157-.03h-9.86a.42.42 0 0 0-.291.12c-.038.038-.068.084-.1.133s-.03.103-.03.157v2.07h-6.162v-2.07a.42.42 0 0 0-.03-.157c-.02-.05-.05-.095-.1-.133a.42.42 0 0 0-.291-.12h-9.86a.42.42 0 0 0-.157.03c-.05.02-.095.05-.133.1s-.068.084-.1.133a.41.41 0 0 0-.031.157v2.07H89.96v-2.07a.41.41 0 0 0-.031-.157c-.02-.05-.05-.095-.1-.133a.46.46 0 0 0-.133-.09c-.05-.022-.103-.03-.157-.03h-9.86a.42.42 0 0 0-.29.119c-.038.038-.068.084-.1.133a.41.41 0 0 0-.031.157v2.07h-6.162v-2.07a.41.41 0 0 0-.031-.157c-.02-.05-.05-.095-.1-.133a.46.46 0 0 0-.133-.09c-.05-.022-.103-.03-.157-.03h-9.86a.42.42 0 0 0-.29.119c-.038.038-.068.084-.1.133a.41.41 0 0 0-.031.157v2.07H56.28v-2.07a.41.41 0 0 0-.031-.157c-.02-.05-.05-.095-.1-.133a.42.42 0 0 0-.29-.119h-9.86a.42.42 0 0 0-.157.03c-.05.02-.095.05-.133.1s-.068.084-.1.133a.41.41 0 0 0-.031.157v2.07h-6.162v-2.07a.41.41 0 0 0-.031-.157c-.02-.05-.05-.095-.1-.133a.46.46 0 0 0-.133-.09c-.05-.022-.103-.03-.157-.03h-9.86a.42.42 0 0 0-.29.119c-.038.038-.068.084-.1.133a.41.41 0 0 0-.031.157v2.07H9.86a9.87 9.87 0 0 0-6.971 2.884A9.84 9.84 0 0 0 0 196.16v4.452a9.84 9.84 0 0 0 2.888 6.962c1.85 1.847 4.357 2.884 6.97 2.884h327.815c2.615 0 5.123-1.037 6.972-2.884a9.84 9.84 0 0 0 2.887-6.962v-4.452a9.84 9.84 0 0 0-2.887-6.963 9.87 9.87 0 0 0-6.972-2.884zM76.632 166.3c-7.06 0-13.96-2.1-19.83-6.007s-10.444-9.484-13.146-15.998a35.6 35.6 0 0 1-2.031-20.595 35.63 35.63 0 0 1 9.768-18.252 35.71 35.71 0 0 1 18.275-9.755 35.73 35.73 0 0 1 20.622 2.028 35.68 35.68 0 0 1 16.018 13.129c3.922 5.862 6.015 12.754 6.015 19.804a35.66 35.66 0 0 1-10.465 25.194c-6.692 6.682-15.764 10.44-25.227 10.452zm0-70.354c-6.874 0-13.593 2.036-19.308 5.85a34.72 34.72 0 0 0-12.8 15.577 34.66 34.66 0 0 0-1.978 20.053c1.342 6.733 4.65 12.917 9.5 17.77a34.78 34.78 0 0 0 17.794 9.5 34.79 34.79 0 0 0 20.08-1.975c6.35-2.627 11.778-7.075 15.597-12.783s5.857-12.418 5.857-19.283c-.01-9.202-3.675-18.024-10.2-24.53S85.834 95.948 76.62 95.938h0zm318.415-80.672H275.3v.938h119.758v-.938zM535 262.9H190.754v.938H535v-.938zm-324.756 43.152H90.486V307h119.758v-.938z"/></g><path d="M234.35 257.966H221.2V271.1h13.15v-13.133z" class="C"/><path d="M242.334 263.595h-15.968v-15.947h15.968v15.947zm-15.273-.694h14.58v-14.56h-14.58v14.56z" class="B"/><path d="M386.983 10.32h-13.15v13.133h13.15V10.32z" class="C"/><path d="M394.967 15.947H379V0h15.968v15.947zm-15.273-.693h14.58V.693h-14.58v14.56z" class="B"/><path d="M519.422 257.966h-13.15V271.1h13.15v-13.133z" class="C"/><g class="B"><path d="M527.406 263.595h-15.968v-15.947h15.968v15.947zm-15.274-.694h14.58v-14.56h-14.58v14.56zM496.5 108.795h-1.117V78.233a17.67 17.67 0 0 0-1.348-6.769c-.9-2.146-2.195-4.096-3.84-5.74a17.69 17.69 0 0 0-5.746-3.834 17.73 17.73 0 0 0-6.778-1.346h-64.836c-2.326 0-4.63.458-6.778 1.346a17.73 17.73 0 0 0-5.746 3.834c-1.646 1.642-2.95 3.593-3.84 5.74a17.67 17.67 0 0 0-1.348 6.769v167.67a17.67 17.67 0 0 0 1.348 6.769c.9 2.146 2.195 4.096 3.84 5.74a17.69 17.69 0 0 0 5.746 3.834 17.73 17.73 0 0 0 6.778 1.347h64.836a17.73 17.73 0 0 0 6.778-1.347 17.74 17.74 0 0 0 5.746-3.834c1.646-1.642 2.95-3.593 3.84-5.74a17.67 17.67 0 0 0 1.348-6.769V130.55h1.117v-21.755z"/></g><path d="M491.6 79.272v167.425c0 3.503-1.393 6.864-3.873 9.342s-5.844 3.87-9.352 3.87h-65.15c-3.508 0-6.872-1.393-9.352-3.87s-3.873-5.84-3.873-9.342V79.272c.001-3.503 1.394-6.862 3.874-9.34s5.844-3.87 9.35-3.87h7.904a6.27 6.27 0 0 0-.432 3.01c.106 1.024.46 2.006 1.036 2.86a6.28 6.28 0 0 0 2.261 2.038 6.29 6.29 0 0 0 2.954.737h37.144a6.29 6.29 0 0 0 2.954-.737 6.28 6.28 0 0 0 2.261-2.038c.575-.854.93-1.836 1.036-2.86a6.27 6.27 0 0 0-.432-3.01h8.463c3.507 0 6.87 1.392 9.35 3.87s3.873 5.836 3.874 9.34h0z" class="C"/><g class="B"><path d="M455.505 176.457h-19.407v5.744h19.407v-5.744z"/><use xlink:href="#B"/><path d="M478.968 139.534h-66.333v2.46h66.333v-2.46zm0 7.796h-66.333v2.46h66.333v-2.46zm0 7.794h-66.333v2.46h66.333v-2.46zm0 7.796h-66.333v2.46h66.333v-2.46z"/></g><path d="M448.12 99.05h-11.503v11.487h11.503V99.05z" class="D"/><path d="M441.02 101.922v13.95h13.967v-13.95H441.02zm13.36 13.344h-12.756v-12.74h12.756v12.74z" class="B"/><path opacity=".1" d="M491.6 228.818v17.88c0 3.503-1.393 6.864-3.873 9.342s-5.844 3.87-9.352 3.87h-65.15c-3.508 0-6.872-1.393-9.352-3.87s-3.873-5.84-3.873-9.342v-90.152l91.6 72.273z" fill="#000"/><path d="M440.166 254.483c11.378 0 20.602-9.21 20.602-20.575s-9.224-20.575-20.602-20.575-20.602 9.212-20.602 20.575 9.224 20.575 20.602 20.575z" class="D"/><g class="B"><path d="M150.365 307a40.9 40.9 0 0 1-22.7-6.877 40.81 40.81 0 0 1-15.048-18.313c-3.092-7.456-3.902-15.66-2.325-23.576a40.78 40.78 0 0 1 11.182-20.893 40.87 40.87 0 0 1 20.92-11.168c7.926-1.574 16.14-.766 23.607 2.322s13.847 8.32 18.337 15.03 6.886 14.6 6.886 22.67a40.82 40.82 0 0 1-11.98 28.84A40.93 40.93 0 0 1 150.365 307zm0-80.673a39.95 39.95 0 0 0-22.178 6.72 39.88 39.88 0 0 0-14.702 17.892c-3.022 7.285-3.812 15.3-2.272 23.034a39.85 39.85 0 0 0 10.925 20.413 39.93 39.93 0 0 0 20.439 10.911 39.97 39.97 0 0 0 23.065-2.269 39.9 39.9 0 0 0 17.915-14.683 39.84 39.84 0 0 0 6.728-22.15c-.012-10.57-4.222-20.703-11.706-28.177a39.99 39.99 0 0 0-28.214-11.69h0zm295.873 23.45a25.86 25.86 0 0 1-14.35-4.347 25.81 25.81 0 0 1-9.514-11.577 25.77 25.77 0 0 1-1.47-14.905c.996-5.005 3.456-9.6 7.07-13.208s8.215-6.065 13.225-7.06a25.85 25.85 0 0 1 14.924 1.468 25.82 25.82 0 0 1 11.592 9.501 25.77 25.77 0 0 1 4.354 14.332 25.81 25.81 0 0 1-7.574 18.232c-4.843 4.836-11.408 7.557-18.257 7.564h0zm0-50.655a24.91 24.91 0 0 0-13.828 4.19 24.86 24.86 0 0 0-9.168 11.156 24.82 24.82 0 0 0-1.416 14.362 24.84 24.84 0 0 0 6.812 12.728c3.48 3.477 7.916 5.845 12.744 6.804a24.92 24.92 0 0 0 14.382-1.415 24.88 24.88 0 0 0 11.17-9.156c2.735-4.087 4.195-8.894 4.195-13.8a24.87 24.87 0 0 0-7.298-17.57 24.94 24.94 0 0 0-17.593-7.289z"/></g></g><defs><clipPath id="A"><path fill="#fff" d="M0 0h535v307H0z"/></clipPath><path id="B" d="M478.968 131.74h-66.333v2.46h66.333v-2.46z"/></defs></svg>
